X: 1
T: Pipe Major Sam Scott
Z: 1998 by John Chambers <jc:trillian.mit.edu>
M: 6/8
L: 1/8
K: D
|: B \
| "D"A>BA d>eg | f3 d2g | f>ed "G"B>cd | "A7"e>fd c>BA \
| "D"A>BA d>eg | f3 d2g | "G"f<ge "A7"A>ce | "D"d3- d2 :|
|: A \
| "D"d>ef a>Aa | f3 a2g | f>ed "G"B>cd | "A7"e>fd c>BA \
| "D"d>ef a>Aa | f3 a2g | "G"f<ge "A7"A>ce | "D"d3- d2 :|
|: c/B \
| "D"A>Bd "G"B>cd | "D"A>df "A7"e>fg | "D"f>ed "G"B>cd | "A7"e>fd c>BA \
| "D"A>Bd "G"B>cd | "D"A>df "A7"e>fg | "G"f<ge "A7"A>ce | "D"d3- d2 :|
[| f/g \
| "D"a>Aa f>Af | "G"g>Ag "A7"e>Ae | "D"f>ed "G"B>cd | "A7"e>fd c>BA \
| "D"a>Aa f>Af | "G"g>Ag "A7"e>Ae | "G"f<ge "A7"A>ce | "D"d3- d2 ||
|| f/g \
| "D"a>Aa f>Af | "G"g>Ag "A7"e>Ae | "D"f>ed "G"B>cd | "A7"e>fd c>BA \
| "D"A>Bd "G"B>cd | "D"A>df "A7"e>fg | "G"f<ge "A7"A>ce | "D"d3- d2 |]
